Newaita-dark/apps/32/digikam.svg

<?xml version="1.0" encoding="UTF-8"?>
<svg xmlns="http://www.w3.org/2000/svg" xmlns:xlink="http://www.w3.org/1999/xlink" width="32pt" height="32pt" viewBox="0 0 32 32" version="1.1">
<defs>
<radialGradient id="radial0" gradientUnits="userSpaceOnUse" cx="450.908936" cy="189.579361" fx="450.908936" fy="189.579361" r="21.166656" gradientTransform="matrix(0.00000017417,-0.0781325,-0.140638,-0.000000101539,43.53087,63.595329)">
<stop offset="0" style="stop-color:rgb(0%,0%,0%);stop-opacity:0.313725;"/>
<stop offset="0.222222" style="stop-color:rgb(0%,0%,0%);stop-opacity:0.27451;"/>
<stop offset="1" style="stop-color:rgb(0%,0%,0%);stop-opacity:0;"/>
</radialGradient>
<radialGradient id="radial1" gradientUnits="userSpaceOnUse" cx="450.908936" cy="189.579361" fx="450.908936" fy="189.579361" r="21.166656" gradientTransform="matrix(-0.00000017417,0.0781325,0.140638,0.000000101539,-11.777836,-7.527482)">
<stop offset="0" style="stop-color:rgb(0%,0%,0%);stop-opacity:0.313725;"/>
<stop offset="0.222222" style="stop-color:rgb(0%,0%,0%);stop-opacity:0.27451;"/>
<stop offset="1" style="stop-color:rgb(0%,0%,0%);stop-opacity:0;"/>
</radialGradient>
<radialGradient id="radial2" gradientUnits="userSpaceOnUse" cx="450.908936" cy="189.579361" fx="450.908936" fy="189.579361" r="21.166656" gradientTransform="matrix(-0.00000017417,-0.0781325,0.140638,-0.000000101539,-11.777836,63.595329)">
<stop offset="0" style="stop-color:rgb(0%,0%,0%);stop-opacity:0.313725;"/>
<stop offset="0.222222" style="stop-color:rgb(0%,0%,0%);stop-opacity:0.27451;"/>
<stop offset="1" style="stop-color:rgb(0%,0%,0%);stop-opacity:0;"/>
</radialGradient>
<radialGradient id="radial3" gradientUnits="userSpaceOnUse" cx="450.908936" cy="189.579361" fx="450.908936" fy="189.579361" r="21.166656" gradientTransform="matrix(0.00000017417,0.0781325,-0.140638,0.000000101539,43.530868,-7.527483)">
<stop offset="0" style="stop-color:rgb(0%,0%,0%);stop-opacity:0.313725;"/>
<stop offset="0.222222" style="stop-color:rgb(0%,0%,0%);stop-opacity:0.27451;"/>
<stop offset="1" style="stop-color:rgb(0%,0%,0%);stop-opacity:0;"/>
</radialGradient>
<linearGradient id="linear0" gradientUnits="userSpaceOnUse" x1="255.323059" y1="233.5" x2="255.323044" y2="254.666656" gradientTransform="matrix(0.0133601,0,0,0.062506,12.465386,13.438784)">
<stop offset="0" style="stop-color:rgb(0%,0%,0%);stop-opacity:0.27451;"/>
<stop offset="1" style="stop-color:rgb(0%,0%,0%);stop-opacity:0;"/>
</linearGradient>
<linearGradient id="linear1" gradientUnits="userSpaceOnUse" x1="254" y1="-168.666672" x2="254" y2="233.5" gradientTransform="matrix(0.062506,0,0,0.062506,0,13.438783)">
<stop offset="0" style="stop-color:rgb(38.039216%,38.039216%,38.039216%);stop-opacity:1;"/>
<stop offset="1" style="stop-color:rgb(25.882353%,25.882353%,25.882353%);stop-opacity:1;"/>
</linearGradient>
<linearGradient id="linear2" gradientUnits="userSpaceOnUse" x1="254" y1="-31.083334" x2="254" y2="95.916664" gradientTransform="matrix(0.1771,0,0,-0.1771,-29.106953,21.206021)">
<stop offset="0" style="stop-color:rgb(38.039216%,38.039216%,38.039216%);stop-opacity:1;"/>
<stop offset="1" style="stop-color:rgb(25.882353%,25.882353%,25.882353%);stop-opacity:1;"/>
</linearGradient>
<linearGradient id="linear3" gradientUnits="userSpaceOnUse" x1="254" y1="-136.916656" x2="254" y2="201.75" gradientTransform="matrix(3.779528,0,0,3.779528,-0.000000262818,812.59845)">
<stop offset="0" style="stop-color:rgb(39.215686%,70.980392%,96.470588%);stop-opacity:1;"/>
<stop offset="1" style="stop-color:rgb(25.882353%,64.705882%,96.078431%);stop-opacity:1;"/>
</linearGradient>
<linearGradient id="linear4" gradientUnits="userSpaceOnUse" x1="254" y1="-136.916656" x2="254" y2="201.750015" gradientTransform="matrix(3.779528,0,0,3.779528,0.0000150706,812.598389)">
<stop offset="0" style="stop-color:rgb(39.215686%,70.980392%,96.470588%);stop-opacity:1;"/>
<stop offset="1" style="stop-color:rgb(25.882353%,64.705882%,96.078431%);stop-opacity:1;"/>
</linearGradient>
<linearGradient id="linear5" gradientUnits="userSpaceOnUse" x1="254" y1="-136.916656" x2="254" y2="201.75" gradientTransform="matrix(3.779528,0,0,3.779528,0.0000122325,812.598389)">
<stop offset="0" style="stop-color:rgb(39.215686%,70.980392%,96.470588%);stop-opacity:1;"/>
<stop offset="1" style="stop-color:rgb(25.882353%,64.705882%,96.078431%);stop-opacity:1;"/>
</linearGradient>
<linearGradient id="linear6" gradientUnits="userSpaceOnUse" x1="254" y1="-136.916656" x2="254" y2="201.75" gradientTransform="matrix(3.779528,0,0,3.779528,0.0000114517,812.598389)">
<stop offset="0" style="stop-color:rgb(39.215686%,70.980392%,96.470588%);stop-opacity:1;"/>
<stop offset="1" style="stop-color:rgb(25.882353%,64.705882%,96.078431%);stop-opacity:1;"/>
</linearGradient>
<linearGradient id="linear7" gradientUnits="userSpaceOnUse" x1="254" y1="-136.916656" x2="254" y2="201.75" gradientTransform="matrix(3.779528,0,0,3.779528,0.00000924297,812.598389)">
<stop offset="0" style="stop-color:rgb(39.215686%,70.980392%,96.470588%);stop-opacity:1;"/>
<stop offset="1" style="stop-color:rgb(25.882353%,64.705882%,96.078431%);stop-opacity:1;"/>
</linearGradient>
<linearGradient id="linear8" gradientUnits="userSpaceOnUse" x1="254" y1="-136.916656" x2="254" y2="201.750015" gradientTransform="matrix(3.779528,0,0,3.779528,0.0000140149,812.598389)">
<stop offset="0" style="stop-color:rgb(39.215686%,70.980392%,96.470588%);stop-opacity:1;"/>
<stop offset="1" style="stop-color:rgb(25.882353%,64.705882%,96.078431%);stop-opacity:1;"/>
</linearGradient>
<linearGradient id="linear9" gradientUnits="userSpaceOnUse" x1="254" y1="-73.416664" x2="254" y2="138.25" >
<stop offset="0" style="stop-color:rgb(38.039216%,38.039216%,38.039216%);stop-opacity:1;"/>
<stop offset="1" style="stop-color:rgb(25.882353%,25.882353%,25.882353%);stop-opacity:1;"/>
</linearGradient>
</defs>
<g id="surface1">
<path style=" stroke:none;fill-rule:nonzero;fill:url(#radial0);" d="M 17.199219 28.035156 L 19.84375 28.035156 L 19.84375 26.710938 L 17.199219 26.710938 Z M 17.199219 28.035156 "/>
<path style=" stroke:none;fill-rule:nonzero;fill:url(#radial1);" d="M 14.554688 28.035156 L 11.90625 28.035156 L 11.90625 29.355469 L 14.554688 29.355469 Z M 14.554688 28.035156 "/>
<path style=" stroke:none;fill-rule:nonzero;fill:url(#radial2);" d="M 14.554688 28.035156 L 11.90625 28.035156 L 11.90625 26.710938 L 14.554688 26.710938 Z M 14.554688 28.035156 "/>
<path style=" stroke:none;fill-rule:nonzero;fill:url(#radial3);" d="M 17.199219 28.035156 L 19.84375 28.035156 L 19.84375 29.355469 L 17.199219 29.355469 Z M 17.199219 28.035156 "/>
<path style=" stroke:none;fill-rule:nonzero;fill:url(#linear0);" d="M 14.554688 27.703125 L 17.199219 27.703125 L 17.199219 29.355469 L 14.554688 29.355469 Z M 14.554688 27.703125 "/>
<path style=" stroke:none;fill-rule:nonzero;fill:url(#linear1);" d="M 15.875 2.894531 C 22.816406 2.894531 28.445312 8.523438 28.445312 15.464844 C 28.445312 22.40625 22.816406 28.035156 15.875 28.035156 C 8.933594 28.035156 3.308594 22.40625 3.308594 15.464844 C 3.308594 8.523438 8.933594 2.894531 15.875 2.894531 Z M 15.875 2.894531 "/>
<path style=" stroke:none;fill-rule:nonzero;fill:url(#linear2);" d="M 15.875 24.726562 C 21.722656 24.726562 26.460938 20.578125 26.460938 15.464844 L 26.460938 14.804688 C 26.460938 9.6875 21.722656 5.542969 15.875 5.542969 C 10.03125 5.542969 5.292969 9.6875 5.292969 14.804688 L 5.292969 15.464844 C 5.292969 20.578125 10.03125 24.726562 15.875 24.726562 Z M 15.875 24.726562 "/>
<path style=" stroke:none;fill-rule:nonzero;fill:rgb(0%,0%,0%);fill-opacity:0.196078;" d="M 15.875 28.035156 C 8.914062 28.035156 3.308594 22.429688 3.308594 15.464844 C 3.308594 15.425781 3.308594 15.382812 3.308594 15.34375 C 3.375 22.246094 8.953125 27.789062 15.875 27.789062 C 22.796875 27.789062 28.378906 22.246094 28.445312 15.34375 C 28.445312 15.382812 28.445312 15.425781 28.445312 15.464844 C 28.445312 22.429688 22.839844 28.035156 15.875 28.035156 Z M 15.875 28.035156 "/>
<path style=" stroke:none;fill-rule:nonzero;fill:rgb(100%,100%,100%);fill-opacity:0.392157;" d="M 15.875 2.894531 C 8.914062 2.894531 3.308594 8.5 3.308594 15.464844 C 3.308594 15.507812 3.308594 15.546875 3.308594 15.589844 C 3.375 8.683594 8.953125 3.140625 15.875 3.140625 C 22.796875 3.140625 28.378906 8.683594 28.445312 15.589844 C 28.445312 15.546875 28.445312 15.507812 28.445312 15.464844 C 28.445312 8.5 22.839844 2.894531 15.875 2.894531 Z M 15.875 2.894531 "/>
<path style="fill-rule:nonzero;fill:url(#linear3);stroke-width:11.338583;stroke-linecap:round;stroke-linejoin:miter;stroke:rgb(12.941177%,12.941177%,12.941177%);stroke-opacity:1;stroke-miterlimit:4;" d="M 429.407835 576.086749 C 360.201842 678.360452 320.048194 801.891969 320.048194 935.107601 C 320.048194 1289.640693 605.375292 1575.203989 959.908384 1575.203989 C 975.261249 1575.203989 990.377917 1574.495395 1005.258386 1573.550604 Z M 429.407835 576.086749 " transform="matrix(0.016538,0,0,0.016538,0,0)"/>
<path style="fill-rule:nonzero;fill:url(#linear4);stroke-width:11.338583;stroke-linecap:round;stroke-linejoin:miter;stroke:rgb(12.941177%,12.941177%,12.941177%);stroke-opacity:1;stroke-miterlimit:4;" d="M 959.908384 295.011213 C 605.375292 295.011213 320.048194 580.57451 320.048194 935.107601 C 320.048194 1068.323233 360.201842 1191.85475 429.407835 1294.128453 L 1005.258386 296.664599 C 990.377917 295.719807 975.261249 295.011213 959.908384 295.011213 Z M 959.908384 295.011213 " transform="matrix(0.016538,0,0,0.016538,0,0)"/>
<path style="fill-rule:nonzero;fill:url(#linear5);stroke-width:11.338583;stroke-linecap:round;stroke-linejoin:miter;stroke:rgb(12.941177%,12.941177%,12.941177%);stroke-opacity:1;stroke-miterlimit:4;" d="M 959.908384 295.011213 C 705.99561 295.011213 487.512526 441.690127 383.821635 655.213055 L 1535.995133 655.213055 C 1432.54044 441.690127 1214.057355 295.011213 959.908384 295.011213 Z M 959.908384 295.011213 " transform="matrix(0.016538,0,0,0.016538,0,0)"/>
<path style="fill-rule:nonzero;fill:url(#linear6);stroke-width:11.338583;stroke-linecap:round;stroke-linejoin:miter;stroke:rgb(12.941177%,12.941177%,12.941177%);stroke-opacity:1;stroke-miterlimit:4;" d="M 959.908384 295.011213 C 944.791716 295.011213 929.675049 295.719807 914.794579 296.664599 L 1490.64513 1294.128453 C 1559.614926 1191.85475 1600.004772 1068.323233 1600.004772 935.107601 C 1600.004772 580.57451 1314.677673 295.011213 959.908384 295.011213 Z M 959.908384 295.011213 " transform="matrix(0.016538,0,0,0.016538,0,0)"/>
<path style="fill-rule:nonzero;fill:url(#linear7);stroke-width:11.338583;stroke-linecap:round;stroke-linejoin:miter;stroke:rgb(12.941177%,12.941177%,12.941177%);stroke-opacity:1;stroke-miterlimit:4;" d="M 1490.64513 576.086749 L 959.908384 1495.132891 L 1005.258386 1573.550604 C 1338.533664 1550.403206 1600.004772 1274.524025 1600.004772 935.107601 C 1600.004772 801.891969 1559.614926 678.360452 1490.64513 576.086749 Z M 1490.64513 576.086749 " transform="matrix(0.016538,0,0,0.016538,0,0)"/>
<path style="fill-rule:nonzero;fill:url(#linear8);stroke-width:11.338583;stroke-linecap:round;stroke-linejoin:miter;stroke:rgb(12.941177%,12.941177%,12.941177%);stroke-opacity:1;stroke-miterlimit:4;" d="M 798.349 1215.002147 L 1005.258386 1573.550604 C 1239.80293 1557.252946 1438.681586 1415.770387 1535.995133 1215.002147 Z M 798.349 1215.002147 " transform="matrix(0.016538,0,0,0.016538,0,0)"/>
<path style="fill-rule:nonzero;fill:url(#linear9);stroke-width:3;stroke-linecap:round;stroke-linejoin:round;stroke:rgb(12.941177%,12.941177%,12.941177%);stroke-opacity:1;stroke-miterlimit:4;" d="M 253.975747 -31.080063 C 289.097393 -31.080063 317.469683 -2.645279 317.469683 32.413873 C 317.469683 67.473025 289.097393 95.90781 253.975747 95.90781 C 218.916595 95.90781 190.48181 67.473025 190.48181 32.413873 C 190.48181 -2.645279 218.916595 -31.080063 253.975747 -31.080063 Z M 253.975747 -31.080063 " transform="matrix(0.062506,0,0,0.062506,0,13.438783)"/>
<path style=" stroke:none;fill-rule:nonzero;fill:rgb(12.941177%,12.941177%,12.941177%);fill-opacity:1;" d="M 15.875 2.800781 C 8.863281 2.800781 3.214844 8.453125 3.214844 15.464844 C 3.214844 22.476562 8.863281 28.128906 15.875 28.128906 C 22.890625 28.128906 28.539062 22.476562 28.539062 15.464844 C 28.539062 8.453125 22.890625 2.800781 15.875 2.800781 Z M 15.875 2.988281 C 22.789062 2.988281 28.351562 8.550781 28.351562 15.464844 C 28.351562 22.378906 22.789062 27.941406 15.875 27.941406 C 8.964844 27.941406 3.402344 22.378906 3.402344 15.464844 C 3.402344 8.550781 8.964844 2.988281 15.875 2.988281 Z M 15.875 2.988281 "/>
<path style=" stroke:none;fill-rule:nonzero;fill:rgb(100%,100%,100%);fill-opacity:0.196078;" d="M 13.621094 13.109375 C 14.398438 12.335938 15.339844 12.019531 15.726562 12.40625 C 16.113281 12.796875 15.800781 13.738281 15.023438 14.511719 C 14.25 15.289062 13.308594 15.601562 12.917969 15.214844 C 12.53125 14.828125 12.847656 13.882812 13.621094 13.109375 Z M 13.621094 13.109375 "/>
</g>
</svg>

<svg xmlns="http://www.w3.org/2000/svg" width="32pt" height="32pt" viewBox="0 0 32 32"><defs><radialGradient id="a" gradientUnits="userSpaceOnUse" cx="450.909" cy="189.579" fx="450.909" fy="189.579" r="21.167" gradientTransform="matrix(0 -.07813 -.14064 0 43.53 63.595)"><stop offset="0" stop-opacity=".314"/><stop offset=".222" stop-opacity=".275"/><stop offset="1" stop-opacity="0"/></radialGradient><radialGradient id="b" gradientUnits="userSpaceOnUse" cx="450.909" cy="189.579" fx="450.909" fy="189.579" r="21.167" gradientTransform="matrix(0 .07813 .14064 0 -11.778 -7.527)"><stop offset="0" stop-opacity=".314"/><stop offset=".222" stop-opacity=".275"/><stop offset="1" stop-opacity="0"/></radialGradient><radialGradient id="c" gradientUnits="userSpaceOnUse" cx="450.909" cy="189.579" fx="450.909" fy="189.579" r="21.167" gradientTransform="matrix(0 -.07813 .14064 0 -11.778 63.595)"><stop offset="0" stop-opacity=".314"/><stop offset=".222" stop-opacity=".275"/><stop offset="1" stop-opacity="0"/></radialGradient><radialGradient id="d" gradientUnits="userSpaceOnUse" cx="450.909" cy="189.579" fx="450.909" fy="189.579" r="21.167" gradientTransform="matrix(0 .07813 -.14064 0 43.53 -7.527)"><stop offset="0" stop-opacity=".314"/><stop offset=".222" stop-opacity=".275"/><stop offset="1" stop-opacity="0"/></radialGradient><linearGradient id="e" gradientUnits="userSpaceOnUse" x1="255.323" y1="233.5" x2="255.323" y2="254.667" gradientTransform="matrix(.01336 0 0 .0625 12.465 13.439)"><stop offset="0" stop-opacity=".275"/><stop offset="1" stop-opacity="0"/></linearGradient><linearGradient id="f" gradientUnits="userSpaceOnUse" x1="254" y1="-168.667" x2="254" y2="233.5" gradientTransform="matrix(.0625 0 0 .0625 0 13.439)"><stop offset="0" stop-color="#616161"/><stop offset="1" stop-color="#424242"/></linearGradient><linearGradient id="g" gradientUnits="userSpaceOnUse" x1="254" y1="-31.083" x2="254" y2="95.917" gradientTransform="matrix(.1771 0 0 -.1771 -29.107 21.206)"><stop offset="0" stop-color="#616161"/><stop offset="1" stop-color="#424242"/></linearGradient><linearGradient id="h" gradientUnits="userSpaceOnUse" x1="254" y1="-136.917" x2="254" y2="201.75" gradientTransform="matrix(3.77953 0 0 3.77953 0 812.598)"><stop offset="0" stop-color="#64b5f6"/><stop offset="1" stop-color="#42a5f5"/></linearGradient><linearGradient id="i" gradientUnits="userSpaceOnUse" x1="254" y1="-136.917" x2="254" y2="201.75" gradientTransform="matrix(3.77953 0 0 3.77953 0 812.598)"><stop offset="0" stop-color="#64b5f6"/><stop offset="1" stop-color="#42a5f5"/></linearGradient><linearGradient id="j" gradientUnits="userSpaceOnUse" x1="254" y1="-136.917" x2="254" y2="201.75" gradientTransform="matrix(3.77953 0 0 3.77953 0 812.598)"><stop offset="0" stop-color="#64b5f6"/><stop offset="1" stop-color="#42a5f5"/></linearGradient><linearGradient id="k" gradientUnits="userSpaceOnUse" x1="254" y1="-136.917" x2="254" y2="201.75" gradientTransform="matrix(3.77953 0 0 3.77953 0 812.598)"><stop offset="0" stop-color="#64b5f6"/><stop offset="1" stop-color="#42a5f5"/></linearGradient><linearGradient id="l" gradientUnits="userSpaceOnUse" x1="254" y1="-136.917" x2="254" y2="201.75" gradientTransform="matrix(3.77953 0 0 3.77953 0 812.598)"><stop offset="0" stop-color="#64b5f6"/><stop offset="1" stop-color="#42a5f5"/></linearGradient><linearGradient id="m" gradientUnits="userSpaceOnUse" x1="254" y1="-136.917" x2="254" y2="201.75" gradientTransform="matrix(3.77953 0 0 3.77953 0 812.598)"><stop offset="0" stop-color="#64b5f6"/><stop offset="1" stop-color="#42a5f5"/></linearGradient><linearGradient id="n" gradientUnits="userSpaceOnUse" x1="254" y1="-73.417" x2="254" y2="138.25"><stop offset="0" stop-color="#616161"/><stop offset="1" stop-color="#424242"/></linearGradient></defs><path d="M17.2 28.035h2.644v-1.324h-2.645zm0 0" fill="url(#a)"/><path d="M14.555 28.035h-2.649v1.32h2.649zm0 0" fill="url(#b)"/><path d="M14.555 28.035h-2.649v-1.324h2.649zm0 0" fill="url(#c)"/><path d="M17.2 28.035h2.644v1.32h-2.645zm0 0" fill="url(#d)"/><path d="M14.555 27.703h2.644v1.652h-2.644zm0 0" fill="url(#e)"/><path d="M15.875 2.895c6.941 0 12.57 5.628 12.57 12.57 0 6.941-5.629 12.57-12.57 12.57-6.941 0-12.566-5.629-12.566-12.57 0-6.942 5.625-12.57 12.566-12.57zm0 0" fill="url(#f)"/><path d="M15.875 24.727c5.848 0 10.586-4.149 10.586-9.262v-.66c0-5.117-4.738-9.262-10.586-9.262-5.844 0-10.582 4.144-10.582 9.262v.66c0 5.113 4.738 9.262 10.582 9.262zm0 0" fill="url(#g)"/><path d="M15.875 28.035a12.54 12.54 0 0 1-12.566-12.57v-.121a12.542 12.542 0 0 0 12.566 12.445 12.545 12.545 0 0 0 12.57-12.445v.12c0 6.966-5.605 12.571-12.57 12.571zm0 0" fill-opacity=".196"/><path d="M15.875 2.895A12.54 12.54 0 0 0 3.309 15.59 12.543 12.543 0 0 1 15.875 3.14a12.546 12.546 0 0 1 12.57 12.45v-.125c0-6.965-5.605-12.57-12.57-12.57zm0 0" fill="#fff" fill-opacity=".392"/><path d="M429.408 576.087c-69.206 102.273-109.36 225.805-109.36 359.02 0 354.534 285.327 640.097 639.86 640.097 15.353 0 30.47-.709 45.35-1.653zm0 0" transform="rotate(.891) scale(.01654)" fill="url(#h)" stroke-width="11.339" stroke-linecap="round" stroke="#212121"/><path d="M959.908 295.011c-354.533 0-639.86 285.564-639.86 640.097 0 133.215 40.154 256.747 109.36 359.02l575.85-997.463c-14.88-.945-29.997-1.654-45.35-1.654zm0 0" transform="rotate(.891) scale(.01654)" fill="url(#i)" stroke-width="11.339" stroke-linecap="round" stroke="#212121"/><path d="M959.908 295.011c-253.912 0-472.395 146.68-576.086 360.202h1152.173C1432.54 441.69 1214.057 295.011 959.908 295.011zm0 0" transform="rotate(.891) scale(.01654)" fill="url(#j)" stroke-width="11.339" stroke-linecap="round" stroke="#212121"/><path d="M959.908 295.011c-15.116 0-30.233.709-45.113 1.654l575.85 997.463c68.97-102.273 109.36-225.805 109.36-359.02 0-354.533-285.327-640.097-640.097-640.097zm0 0" transform="rotate(.891) scale(.01654)" fill="url(#k)" stroke-width="11.339" stroke-linecap="round" stroke="#212121"/><path d="M1490.645 576.087l-530.737 919.046 45.35 78.418c333.276-23.148 594.747-299.027 594.747-638.443 0-133.216-40.39-256.748-109.36-359.021zm0 0" transform="rotate(.891) scale(.01654)" fill="url(#l)" stroke-width="11.339" stroke-linecap="round" stroke="#212121"/><path d="M798.349 1215.002l206.91 358.549c234.544-16.298 433.423-157.78 530.736-358.549zm0 0" transform="rotate(.891) scale(.01654)" fill="url(#m)" stroke-width="11.339" stroke-linecap="round" stroke="#212121"/><path d="M253.976-31.08c35.121 0 63.494 28.435 63.494 63.494s-28.373 63.494-63.494 63.494c-35.06 0-63.494-28.435-63.494-63.494 0-35.06 28.435-63.494 63.494-63.494zm0 0" transform="matrix(.0625 0 0 .0625 0 13.439)" fill="url(#n)" stroke-width="3" stroke-linecap="round" stroke-linejoin="round" stroke="#212121"/><path d="M15.875 2.8a12.638 12.638 0 0 0-12.66 12.665 12.638 12.638 0 0 0 12.66 12.664 12.64 12.64 0 0 0 12.664-12.664A12.64 12.64 0 0 0 15.875 2.8zm0 .188a12.447 12.447 0 0 1 12.477 12.477A12.447 12.447 0 0 1 15.875 27.94 12.446 12.446 0 0 1 3.402 15.465 12.446 12.446 0 0 1 15.875 2.988zm0 0" fill="#212121"/><path d="M13.621 13.11c.777-.774 1.719-1.09 2.106-.704.386.39.074 1.332-.704 2.106-.773.777-1.714 1.09-2.105.703-.387-.387-.07-1.332.703-2.106zm0 0" fill="#fff" fill-opacity=".196"/></svg>
